Numix-GalliumOS/64/categories/gnome-settings.svg

<?xml version="1.0" encoding="UTF-8" standalone="no"?>
<svg
   xmlns:dc="http://purl.org/dc/elements/1.1/"
   xmlns:cc="http://creativecommons.org/ns#"
   xmlns:rdf="http://www.w3.org/1999/02/22-rdf-syntax-ns#"
   xmlns:svg="http://www.w3.org/2000/svg"
   xmlns="http://www.w3.org/2000/svg"
   xmlns:sodipodi="http://sodipodi.sourceforge.net/DTD/sodipodi-0.dtd"
   xmlns:inkscape="http://www.inkscape.org/namespaces/inkscape"
   width="64"
   height="64"
   viewBox="0 0 64 64"
   id="svg2"
   version="1.1"
   inkscape:version="0.91 r"
   sodipodi:docname="gtk-preferences.svg">
  <metadata
     id="metadata26">
    <rdf:RDF>
      <cc:Work
         rdf:about="">
        <dc:format>image/svg+xml</dc:format>
        <dc:type
           rdf:resource="http://purl.org/dc/dcmitype/StillImage" />
        <dc:title />
      </cc:Work>
    </rdf:RDF>
  </metadata>
  <defs
     id="defs24" />
  <sodipodi:namedview
     pagecolor="#ffffff"
     bordercolor="#666666"
     borderopacity="1"
     objecttolerance="10"
     gridtolerance="10"
     guidetolerance="10"
     inkscape:pageopacity="0"
     inkscape:pageshadow="2"
     inkscape:window-width="1680"
     inkscape:window-height="1026"
     id="namedview22"
     showgrid="true"
     inkscape:zoom="10.429825"
     inkscape:cx="20.479678"
     inkscape:cy="22.788931"
     inkscape:window-x="0"
     inkscape:window-y="24"
     inkscape:window-maximized="1"
     inkscape:current-layer="svg2">
    <inkscape:grid
       type="xygrid"
       id="grid4154" />
  </sodipodi:namedview>
  <g
     id="g4164"
     transform="matrix(2,0,0,2,0,-64)">
    <path
       d="M 5,36 5,52 6,52 6,36 Z"
       id="path6"
       inkscape:connector-curvature="0"
       style="fill:#ec86ab" />
    <path
       d="m 7.5,53 c 0,1.102273 -0.897728,2 -2.0037876,2 C 4.3939394,55 3.5,54.102273 3.5,53 3.5,51.893939 4.3939394,51 5.4962124,51 6.602272,51 7.5,51.893939 7.5,53 Z"
       id="path8"
       inkscape:connector-curvature="0"
       style="fill:#ec86ab" />
    <path
       d="m 13,60 0,-20 -1,0 0,20 z"
       id="path10"
       inkscape:connector-curvature="0"
       style="fill:#ec86ab" />
    <path
       d="M 10.5,39.003788 C 10.5,37.897727 11.397727,37 12.496211,37 13.602272,37 14.5,37.897727 14.5,39.003788 14.5,40.102272 13.602272,41 12.496211,41 11.397727,41 10.5,40.102272 10.5,39.003788 Z"
       id="path12"
       inkscape:connector-curvature="0"
       style="fill:#ec86ab" />
    <path
       d="m 19,36 0,15 1,0 0,-15 z"
       id="path14"
       inkscape:connector-curvature="0"
       style="fill:#ec86ab" />
    <path
       d="m 21.5,52 c 0,1.102273 -0.897727,2 -2,2 -1.102273,0 -2,-0.897727 -2,-2 0,-1.102273 0.897727,-2 2,-2 1.102273,0 2,0.897727 2,2 z"
       id="path16"
       inkscape:connector-curvature="0"
       style="fill:#ec86ab" />
    <path
       d="m 27,60 0,-11 -1,0 0,11 z"
       id="path18"
       inkscape:connector-curvature="0"
       style="fill:#ec86ab" />
    <path
       d="M 24.5,47.998104 C 24.5,46.890994 25.397727,46 26.503788,46 27.602273,46 28.5,46.890994 28.5,47.998104 28.5,49.105213 27.602273,50 26.503788,50 25.397727,50 24.5,49.105213 24.5,47.998104 Z"
       id="path20"
       inkscape:connector-curvature="0"
       style="fill:#ec86ab" />
  </g>
</svg>

<svg xmlns="http://www.w3.org/2000/svg" viewBox="0 0 64 64">
 <g transform="matrix(2,0,0,2,0,-64)">
  <path d="m 5 36 0 16 1 0 0 -16" style="fill:#ec86ab"/>
  <path d="m 7.5 53 c 0 1.102 -0.898 2 -2 2 c -1.102 0 -1.996 -0.898 -1.996 -2 0 -1.106 0.894 -2 1.996 -2 1.106 0 2 0.894 2 2" style="fill:#ec86ab"/>
  <path d="m 13 60 0 -20 -1 0 0 20 z" style="fill:#ec86ab"/>
  <path d="m 10.5 39 c 0 -1.106 0.898 -2 1.996 -2 1.106 0 2 0.898 2 2 0 1.098 -0.898 1.996 -2 1.996 -1.098 0 -1.996 -0.898 -1.996 -1.996" style="fill:#ec86ab"/>
  <path d="m 19 36 0 15 1 0 0 -15 z" style="fill:#ec86ab"/>
  <path d="m 21.5 52 c 0 1.102 -0.898 2 -2 2 -1.102 0 -2 -0.898 -2 -2 0 -1.102 0.898 -2 2 -2 1.102 0 2 0.898 2 2 z" style="fill:#ec86ab"/>
  <path d="m 27 60 0 -11 -1 0 0 11 z" style="fill:#ec86ab"/>
  <path d="m 24.5 47.998 c 0 -1.107 0.898 -1.998 2 -1.998 1.098 0 1.996 0.891 1.996 1.998 0 1.107 -0.898 2 -1.996 2 -1.106 0 -2 -0.895 -2 -2" style="fill:#ec86ab"/>
 </g>
</svg>
